src/assets/mobile/disney.svg

<svg width="61" height="24" viewBox="0 0 61 24" fill="none" xmlns="http://www.w3.org/2000/svg">
<path d="M52.7186 10.4369C51.6875 10.6632 48.9642 10.7889 48.9642 10.7889L48.6294 11.8113C48.6294 11.8113 49.9777 11.7023 50.9648 11.7945C50.9648 11.7945 51.2821 11.7694 51.3173 12.1297C51.3349 12.4985 51.2909 12.884 51.2909 12.884C51.2909 12.884 51.2644 13.1102 50.9384 13.1689C50.5594 13.2276 48.0036 13.3365 48.0036 13.3365L47.5894 14.6606C47.5894 14.6606 47.4396 14.9623 47.7833 14.8785C48.1006 14.7947 50.7797 14.3086 51.1322 14.3757C51.5024 14.4595 51.9254 14.9455 51.802 15.3813C51.661 15.9093 48.9819 17.5351 47.3603 17.4261C47.3603 17.4261 46.5054 17.4764 45.7916 16.3786C45.1042 15.331 46.0295 13.3616 46.0295 13.3616C46.0295 13.3616 45.6153 12.4398 45.9238 12.1046C45.9238 12.1046 46.1 11.9621 46.6288 11.9202L47.2898 10.6296C47.2898 10.6296 46.5407 10.6715 46.1 10.152C45.6946 9.64913 45.6594 9.43124 45.9766 9.29715C46.3115 9.12955 49.4137 8.60158 51.5465 8.66863C51.5465 8.66863 52.2956 8.58482 52.9565 9.81674C52.9565 9.81674 53.2562 10.3196 52.7274 10.4369M44.6811 15.3981C44.4167 16.0098 43.6853 16.6551 42.804 16.2613C41.905 15.859 40.4862 13.1102 40.4862 13.1102C40.4862 13.1102 39.9574 12.0878 39.8516 12.1213C39.8516 12.1213 39.7371 11.9202 39.6754 13.0432C39.5872 14.1578 39.693 16.3283 39.2083 16.6719C38.7676 17.0071 38.2388 16.8646 37.9392 16.4708C37.6924 16.0769 37.5867 15.1299 37.7277 13.479C37.8863 11.828 38.2829 10.0681 38.7852 9.52342C39.314 8.97032 39.7371 9.37258 39.8957 9.52342C39.8957 9.52342 40.5743 10.1101 41.72 11.8448L41.9139 12.1632C41.9139 12.1632 42.9538 13.8142 43.0595 13.8058C43.0595 13.8058 43.1477 13.8896 43.2182 13.8226C43.3239 13.7974 43.2887 13.2611 43.2887 13.2611C43.2887 13.2611 43.0948 11.4761 42.1254 8.45912C42.1254 8.45912 41.9844 8.07362 42.0813 7.70488C42.1694 7.36967 42.5484 7.53727 42.5484 7.53727C42.5484 7.53727 44.0113 8.2077 44.7252 10.4704C45.4302 12.7331 44.9543 14.7863 44.6899 15.3981M37.5074 9.59047C37.3664 9.82512 37.3047 10.152 36.6966 10.2441C36.6966 10.2441 30.7919 10.638 30.501 11.0319C30.501 11.0319 30.3072 11.2665 30.6244 11.3252C30.9593 11.3923 32.2989 11.5599 32.9334 11.5934C33.6208 11.5934 35.9298 11.6101 36.7759 12.599C36.7759 12.599 37.2606 13.0683 37.243 14.1326C37.2253 15.2221 37.0227 15.6076 36.5732 16.0015C36.1061 16.3702 32.105 18.0798 29.5228 15.4651C29.5228 15.4651 28.3419 14.2081 29.937 13.2527C29.937 13.2527 31.0827 12.5823 34.0174 13.3616C34.0174 13.3616 34.8987 13.6633 34.8635 13.9734C34.8106 14.3086 34.132 14.6438 33.1449 14.6271C32.1931 14.6019 31.4881 14.1662 31.6291 14.2416C31.7613 14.2835 30.598 13.7052 30.2367 14.0991C29.8841 14.4679 29.9723 14.6857 30.3248 14.912C31.2061 15.3981 34.6696 15.2221 35.7007 14.1243C35.7007 14.1243 36.1149 13.6801 35.4892 13.3197C34.8723 12.9845 33.0744 12.775 32.3782 12.7499C31.7172 12.7164 29.2408 12.7499 28.8706 12.1381C28.8706 12.1381 28.5181 11.7023 28.9059 10.5123C29.3113 9.25525 32.1931 8.76919 33.4446 8.66863C33.4446 8.66863 36.8816 8.53454 37.525 9.20497C37.525 9.20497 37.6131 9.35582 37.5074 9.58209M27.7602 16.9568C27.346 17.2501 26.4647 17.1244 26.2091 16.7892C25.9624 16.4959 25.8742 15.3394 25.9183 13.5209C25.98 11.6604 26.0064 9.38096 26.4471 9.01222C26.8877 8.65186 27.1521 8.97032 27.3284 9.21335C27.5046 9.46476 27.7338 9.74131 27.769 10.3196C27.8219 10.9062 27.9717 13.9231 27.9717 13.9231C27.9717 13.9231 28.1656 16.6719 27.769 16.9568M28.6415 7.15178C27.4253 7.54565 26.5969 7.41995 25.8919 7.12663C25.5834 7.6546 25.3983 7.81383 25.1692 7.84735C24.8167 7.88087 24.5082 7.34452 24.4641 7.17692C24.3936 7.05121 24.2262 6.82494 24.4289 6.31374C23.7415 5.72711 23.6886 4.93935 23.812 4.41139C23.9706 3.79124 25.1339 1.46149 28.6591 1.18494C28.6591 1.18494 30.3865 1.06761 30.6861 1.93918H30.739C30.739 1.93918 32.4135 1.93917 32.3782 3.36384C32.3782 4.78851 30.5275 6.56515 28.6415 7.17692M30.2102 3.09567C29.0998 3.26328 27.3901 4.67118 26.5704 5.83605C27.8307 6.05394 30.034 5.97014 31.021 4.07617C31.021 4.07617 31.4881 2.88616 30.2102 3.09567ZM25.3366 4.01751C24.9841 4.56224 24.9665 4.88907 25.1339 5.10696C25.5481 4.52033 26.2796 3.59849 27.3812 2.87778C26.5352 2.96158 25.8213 3.2968 25.3366 4.01751ZM55.3625 16.8982C54.5517 18.7921 53.8643 20.7112 53.4677 23.5857C53.4677 23.5857 53.3796 24.1472 52.8948 23.9628C52.4101 23.7952 51.617 23.041 51.4407 21.9767C51.2644 20.5855 51.9166 18.239 53.2474 15.5405C52.8596 14.9539 52.5864 14.0824 52.8067 12.8588C52.8067 12.8588 53.1592 10.5961 55.5387 8.5513C55.5387 8.5513 55.8208 8.32503 55.9794 8.40045C56.1733 8.48426 56.094 9.20497 55.9353 9.57371C55.7943 9.92568 54.7367 11.6688 54.7367 11.6688C54.7367 11.6688 54.0758 12.8588 54.2609 13.789C55.5123 11.9621 58.3589 8.25799 60.1215 9.43124C61.2407 10.1855 61.2407 12.6158 60.4035 14.0237C59.7425 15.1383 57.8742 17.4429 55.3801 16.9065M59.0463 11.2079C58.3941 11.8783 57.2308 13.1521 56.3143 14.8785C57.2837 14.7779 58.2267 14.2667 58.5175 14.0069C58.9846 13.6131 60.0598 12.5487 59.8923 11.1408C59.8923 11.1408 59.7866 10.4034 59.0463 11.2079ZM19.5641 17.8871C16.4443 18.7921 13.5008 18.3731 11.8968 17.9709C11.8528 18.591 11.7823 18.8508 11.6765 18.9514C11.5531 19.0854 10.5308 19.6386 9.96679 18.8508C9.72002 18.4737 9.59664 17.7949 9.52614 17.1747C5.91281 15.616 4.23835 13.3197 4.18547 13.2359C4.09734 13.1521 3.27773 12.3392 4.09734 11.3336C4.86407 10.4285 7.40221 9.51504 9.67596 9.15469C9.76409 7.311 9.9756 5.88634 10.2488 5.25781C10.5749 4.50357 10.9891 5.174 11.3592 5.67683C11.6589 6.05395 11.844 7.67136 11.8616 8.96194C13.3422 8.8949 14.2411 8.99546 15.8891 9.29715C18.0571 9.64913 19.5024 10.7051 19.3879 11.8951C19.2821 13.0683 18.1541 13.5544 17.7134 13.5879C17.2728 13.6214 16.5677 13.3114 16.5677 13.3114C16.0742 13.0935 16.5236 12.8923 17.0965 12.6577C17.731 12.3644 17.59 12.0711 17.59 12.0711C17.3609 11.4006 14.5495 10.9565 11.7558 10.9565C11.7558 12.423 11.8175 14.8534 11.8616 16.2696C13.8181 16.6216 15.281 16.5462 15.281 16.5462C15.281 16.5462 22.4195 16.3534 22.6222 12.0208C22.8426 7.67974 15.4837 3.52307 10.0637 2.21573C4.65256 0.866485 1.58564 1.82185 1.32125 1.94756C1.03042 2.08164 1.29481 2.13192 1.29481 2.13192C1.29481 2.13192 1.58564 2.17383 2.11442 2.34143C2.6432 2.50904 2.22017 2.76045 2.22017 2.76045C1.29481 3.06215 0.26369 2.88616 0.0609916 2.4839C-0.141707 2.09002 0.193186 1.72967 0.589771 1.2017C0.959916 0.656976 1.38294 0.673736 1.38294 0.673736C8.08081 -1.54707 16.2593 2.43362 16.2593 2.43362C23.9089 6.10423 25.2133 10.4201 25.0722 12.0962C24.9489 13.7471 24.2791 16.5378 19.5641 17.8954M4.84644 11.8951C4.08853 12.2303 4.6173 12.7666 4.6173 12.7666C6.04501 14.2164 7.78998 15.1299 9.46445 15.6998C9.65833 13.1857 9.64071 12.289 9.64071 11.0235C7.04969 11.1911 5.55148 11.5934 4.84644 11.8951Z" fill="#090C21"/>
</svg>

<svg xmlns="http://www.w3.org/2000/svg" width="61" height="24" fill="none"><path fill="#090C21" d="M52.719 10.437c-1.032.226-3.755.352-3.755.352l-.335 1.022s1.349-.109 2.336-.017c0 0 .317-.025.352.336.018.368-.026.754-.026.754s-.027.226-.353.285c-.379.059-2.934.167-2.934.167l-.415 1.325s-.15.301.194.218c.318-.084 2.997-.57 3.35-.503.37.084.792.57.669 1.005-.141.528-2.82 2.154-4.442 2.045 0 0-.855.05-1.568-1.047-.688-1.048.237-3.017.237-3.017s-.414-.922-.105-1.257c0 0 .176-.143.705-.185l.66-1.29s-.748.041-1.189-.478c-.405-.503-.44-.72-.123-.855.335-.167 3.437-.695 5.57-.628 0 0 .749-.084 1.41 1.148 0 0 .3.503-.23.62m-8.046 4.961c-.264.612-.996 1.257-1.877.863-.899-.402-2.318-3.15-2.318-3.15s-.529-1.023-.634-.99c0 0-.115-.2-.177.922-.088 1.115.018 3.285-.467 3.629-.44.335-.97.193-1.269-.201-.247-.394-.352-1.341-.211-2.992.158-1.651.555-3.41 1.057-3.956.529-.553.952-.15 1.11 0 0 0 .68.587 1.825 2.322l.194.318s1.04 1.651 1.145 1.643c0 0 .089.084.16.017.105-.026.07-.562.07-.562s-.194-1.785-1.164-4.802c0 0-.14-.385-.044-.754.088-.335.467-.168.467-.168s1.463.67 2.177 2.933c.705 2.263.23 4.316-.035 4.928M37.507 9.59c-.14.235-.202.562-.81.654 0 0-5.905.394-6.196.788 0 0-.194.235.123.293.335.067 1.675.235 2.31.268.687 0 2.996.017 3.842 1.006 0 0 .485.47.467 1.534-.018 1.09-.22 1.475-.67 1.869-.467.368-4.468 2.078-7.05-.537 0 0-1.181-1.257.414-2.212 0 0 1.146-.67 4.08.109 0 0 .882.301.846.611-.052.336-.731.67-1.718.654-.952-.025-1.657-.46-1.516-.385.132.041-1.031-.537-1.392-.143-.353.369-.265.587.088.813.881.486 4.345.31 5.376-.788 0 0 .414-.444-.212-.804-.617-.335-2.415-.545-3.11-.57-.662-.034-3.138 0-3.508-.612 0 0-.353-.436.035-1.626.405-1.257 3.287-1.743 4.539-1.843 0 0 3.437-.134 4.08.536 0 0 .088.15-.018.377m-9.747 7.375c-.414.293-1.295.167-1.55-.168-.248-.293-.336-1.45-.292-3.268.062-1.86.088-4.14.53-4.509.44-.36.704-.042.88.201.177.252.406.528.441 1.107.053.586.203 3.603.203 3.603s.194 2.749-.203 3.034m.873-9.805c-1.217.394-2.045.268-2.75-.025-.309.528-.494.687-.723.72-.352.034-.66-.502-.705-.67-.07-.126-.238-.352-.035-.863-.687-.587-.74-1.375-.617-1.903.159-.62 1.322-2.95 4.847-3.226 0 0 1.728-.117 2.027.754h.053s1.674 0 1.64 1.425c0 1.425-1.851 3.201-3.737 3.813m1.568-4.081c-1.11.167-2.82 1.575-3.64 2.74 1.26.218 3.464.134 4.451-1.76 0 0 .467-1.19-.81-.98m-4.873.922c-.353.544-.37.871-.203 1.089.414-.587 1.146-1.509 2.247-2.23-.846.085-1.56.42-2.044 1.14m30.025 12.88c-.81 1.894-1.498 3.813-1.894 6.688 0 0-.088.561-.573.377-.485-.168-1.278-.922-1.454-1.986-.177-1.392.476-3.738 1.806-6.437-.387-.586-.66-1.458-.44-2.681 0 0 .352-2.263 2.732-4.308 0 0 .282-.226.44-.15.194.083.115.804-.044 1.173-.14.352-1.198 2.095-1.198 2.095s-.661 1.19-.476 2.12c1.251-1.827 4.098-5.531 5.86-4.358 1.12.755 1.12 3.185.282 4.593-.66 1.114-2.529 3.419-5.023 2.883m3.666-5.7c-.652.671-1.815 1.945-2.732 3.672.97-.101 1.913-.612 2.203-.872.468-.394 1.543-1.458 1.375-2.866 0 0-.105-.738-.846.067m-39.482 6.68c-3.12.905-6.063.486-7.667.084-.044.62-.115.88-.22.98-.124.134-1.146.688-1.71-.1-.247-.377-.37-1.056-.44-1.676-3.614-1.559-5.289-3.855-5.342-3.94-.088-.083-.907-.896-.088-1.901.767-.905 3.305-1.819 5.579-2.18.088-1.843.3-3.268.573-3.896.326-.754.74-.084 1.11.419.3.377.485 1.994.503 3.285 1.48-.067 2.38.033 4.027.335 2.168.352 3.613 1.408 3.499 2.598-.106 1.173-1.234 1.66-1.675 1.693-.44.033-1.145-.277-1.145-.277-.494-.217-.044-.419.528-.653.635-.294.494-.587.494-.587-.23-.67-3.04-1.114-5.834-1.114 0 1.466.062 3.896.106 5.313 1.956.352 3.419.276 3.419.276s7.138-.193 7.341-4.525c.22-4.341-7.138-8.498-12.558-9.805-5.411-1.35-8.478-.394-8.743-.268-.29.134-.026.184-.026.184s.29.042.82.21c.528.167.105.418.105.418-.925.302-1.956.126-2.159-.276-.203-.394.132-.754.529-1.282.37-.545.793-.528.793-.528 6.698-2.221 14.876 1.76 14.876 1.76 7.65 3.67 8.954 7.986 8.813 9.662-.123 1.651-.793 4.442-5.508 5.8m-14.718-6c-.757.334-.229.87-.229.87 1.428 1.45 3.173 2.364 4.847 2.934.194-2.514.177-3.411.177-4.676-2.591.167-4.09.57-4.795.871"/></svg>
